WordPressTheme/assets/images/common/whale-icon-black.svg

<svg width="50" height="50" viewBox="0 0 50 50" fill="none" xmlns="http://www.w3.org/2000/svg">
<path d="M41.1758 23.3034C41.1716 23.1098 41.1177 22.9204 41.0191 22.7529C40.7419 22.2768 40.132 21.9739 39.2077 21.8523C38.6729 21.782 38.17 21.6959 37.7131 21.5963C36.3124 21.2889 34.8771 21.1628 33.4434 21.2211C32.2371 21.2658 31.0341 21.3734 29.8394 21.5433C29.5863 21.5812 29.2923 21.6274 28.9664 21.6789C26.546 22.0598 21.6218 22.8345 18.5632 22.2373C18.1478 21.4641 18.0762 20.7732 18.3507 20.1819C18.9469 18.8978 20.9654 18.2961 21.6962 18.1167C22.5613 19.4194 23.6609 20.2211 24.9673 20.501C27.3971 21.0215 29.6352 19.5387 29.7293 19.4755C29.8012 19.427 29.8554 19.3572 29.8841 19.2761C29.9128 19.1951 29.9144 19.1071 29.8887 19.0252C29.863 18.9432 29.8113 18.8714 29.7412 18.8204C29.6712 18.7695 29.5864 18.7419 29.4994 18.7419C29.2785 18.7265 29.0655 18.655 28.8811 18.5343C28.4743 18.2907 28.1416 17.9435 27.9179 17.5294C27.0853 16.0172 25.8833 15.4535 25.1929 15.247C26.5981 11.9296 24.771 9.76128 24.6887 9.66659L24.6775 9.65471C24.2368 9.18686 24.4846 8.33871 24.4869 8.33158C24.51 8.25692 24.5105 8.17724 24.4884 8.10229C24.4663 8.02734 24.4226 7.96035 24.3625 7.9095C24.3024 7.85865 24.2286 7.82614 24.1501 7.81594C24.0716 7.80575 23.9918 7.8183 23.9204 7.85208C21.9798 8.76771 20.8242 10.4735 20.5781 12.7849C20.4906 13.6623 20.522 14.5473 20.6715 15.4165C19.7354 15.3546 18.7956 15.3745 17.8631 15.4759C17.4945 15.5116 10.497 16.251 7.39126 21.7022C6.0244 24.1013 5.89663 26.9817 7.04918 29.4071C7.98935 31.386 9.54365 32.9087 11.671 33.9413C11.0492 34.5902 10.5387 35.3345 10.1596 36.145C8.84346 38.9554 6.0614 38.543 5.94448 38.5241C5.85827 38.5098 5.76966 38.5231 5.69171 38.5622C5.61377 38.6012 5.55063 38.6639 5.51161 38.7411C5.47259 38.8182 5.45975 38.9056 5.47499 38.9905C5.49023 39.0754 5.53275 39.1531 5.59626 39.2124C6.91877 40.4456 8.60589 41.1721 10.2466 41.0578C13.3598 40.841 15.908 38.1902 16.8584 37.0494C17.2498 36.5734 17.6844 36.1335 18.1569 35.7353C18.1747 35.737 18.1925 35.7376 18.2103 35.7371C20.1894 35.6127 22.7275 35.7478 22.7468 35.749C22.8138 35.7536 22.8794 35.7568 22.9461 35.7609C22.188 36.2906 21.5614 36.9828 21.1134 37.7854C20.4585 38.9434 18.7807 41.3614 16.1847 41.3787C16.6521 41.0307 17.0175 40.5667 17.2436 40.0341C17.4697 39.5016 17.5485 38.9194 17.4718 38.347C17.4668 38.2939 17.451 38.2423 17.4256 38.1952C17.4001 38.1482 17.3653 38.1066 17.3234 38.0729C17.2814 38.0392 17.2331 38.014 17.1811 37.9989C17.1292 37.9839 17.0748 37.9791 17.021 37.985C16.9672 37.9908 16.9151 38.0072 16.8678 38.0331C16.8205 38.059 16.7789 38.094 16.7454 38.1359C16.7119 38.1778 16.6872 38.2259 16.6728 38.2773C16.6584 38.3287 16.6545 38.3825 16.6613 38.4354C16.7383 39.0351 16.5958 39.6422 16.2595 40.1477C15.8953 40.6607 15.3622 41.0336 14.7507 41.2031C14.6615 41.2217 14.5812 41.2693 14.5226 41.3383C14.4641 41.4072 14.4307 41.4935 14.4278 41.5834C14.4248 41.6732 14.4525 41.7614 14.5065 41.8339C14.5604 41.9064 14.6375 41.959 14.7253 41.9833C15.1994 42.1167 15.6898 42.1854 16.1828 42.1875C19.1944 42.1875 21.0903 39.4771 21.8258 38.1763C22.2538 37.4027 22.8744 36.7491 23.6292 36.2769C23.915 36.1033 24.2148 35.9532 24.5255 35.828C24.5303 35.826 24.5343 35.823 24.539 35.8208C24.6665 35.8224 24.7942 35.8242 24.9202 35.8242C33.1882 35.8242 38.1864 32.4552 40.04 30.9122C40.481 30.5447 41.0395 30.3428 41.6169 30.3419H42.6264C43.0497 30.3475 43.4649 30.2279 43.8185 29.9986C44.7174 29.4003 44.5927 28.4352 44.3712 27.9246C44.3866 27.3102 44.2875 24.4242 41.1758 23.3034ZM16.2283 36.5395C15.5395 37.366 13.0693 40.0774 10.1954 40.2557C9.08453 40.3246 8.01575 40.0083 7.00567 39.3141C8.1716 39.178 9.90923 38.5977 10.9034 36.4746C10.9144 36.4499 12.025 33.9937 13.7636 33.5653C13.8677 33.5388 13.957 33.4728 14.012 33.3816C14.067 33.2905 14.0832 33.1817 14.0571 33.0788C14.031 32.9759 13.9648 32.8874 13.8728 32.8324C13.7808 32.7775 13.6705 32.7606 13.5659 32.7855C13.1248 32.9001 12.71 33.0969 12.3439 33.3653C10.2255 32.4139 8.69171 30.9691 7.7877 29.0663C6.74628 26.8752 6.86392 24.2694 8.10229 22.0959C11.0126 16.9872 17.8776 16.282 17.9466 16.2756C17.9484 16.2756 17.95 16.2748 17.9518 16.2745C17.9536 16.2743 17.9553 16.2745 17.957 16.2745C17.9743 16.2725 19.6948 16.0719 21.1253 16.2735C21.192 16.2828 21.2599 16.2757 21.3231 16.2528C21.3863 16.23 21.4428 16.1921 21.4875 16.1425C21.5322 16.0929 21.5638 16.0332 21.5795 15.9687C21.5951 15.9042 21.5944 15.8369 21.5772 15.7727C21.3544 14.8134 21.2916 13.8248 21.3912 12.8456C21.5829 11.0961 22.3256 9.78944 23.6024 8.95079C23.6017 9.40696 23.7683 9.84802 24.0713 10.1928C24.1884 10.333 25.7675 12.3155 24.2473 15.3539C24.218 15.4124 24.2036 15.4771 24.2053 15.5423C24.2071 15.6075 24.2249 15.6713 24.2573 15.7282C24.2896 15.7851 24.3355 15.8334 24.3911 15.8689C24.4466 15.9044 24.5101 15.926 24.576 15.9319C24.5921 15.9333 26.2009 16.0975 27.2017 17.9133C27.4954 18.4546 27.9316 18.9079 28.4646 19.2254C28.4689 19.2278 28.4732 19.2304 28.4776 19.233C27.6925 19.5865 26.4239 19.9934 25.1354 19.7149C23.9783 19.4654 23.0029 18.7051 22.2368 17.4543C22.1938 17.3842 22.1301 17.3287 22.0543 17.2953C21.9784 17.2618 21.894 17.252 21.8124 17.2672C21.6783 17.2919 18.5164 17.8982 17.6103 19.8459C17.309 20.495 17.2906 21.204 17.5539 21.9619C17.1408 21.8212 16.7632 21.5947 16.4467 21.2976C16.2082 21.0673 16.0273 20.7857 15.918 20.4748C15.9016 20.4243 15.8752 20.3776 15.8403 20.3373C15.8055 20.2969 15.7629 20.2638 15.7151 20.2397C15.6672 20.2157 15.6149 20.2012 15.5614 20.1971C15.5078 20.193 15.4539 20.1994 15.4028 20.2159C15.3518 20.2324 15.3045 20.2587 15.2638 20.2933C15.2231 20.3278 15.1897 20.37 15.1656 20.4173C15.1415 20.4647 15.1271 20.5163 15.1233 20.5691C15.1194 20.6219 15.1263 20.675 15.1433 20.7252C15.2913 21.1541 15.5386 21.543 15.8656 21.8614C18.1904 24.1891 25.2841 23.0725 29.0952 22.4726C29.4186 22.4216 29.7099 22.3758 29.9617 22.3382C31.1275 22.1726 32.3014 22.0679 33.4784 22.0244C34.8412 21.9689 36.2056 22.0887 37.537 22.3808C38.0163 22.4852 38.5421 22.5755 39.0997 22.6488C39.9513 22.7607 40.1832 22.9664 40.3593 23.2985C40.1677 23.3592 39.97 23.3991 39.7696 23.4173C39.445 23.4485 39.1177 23.441 38.7949 23.395C36.6648 23.1315 34.5026 23.47 32.5602 24.3711C31.2083 25.0205 30.0202 25.9585 29.0821 27.1171C28.1966 28.1892 25.7312 30.6862 21.9725 30.7158C21.8655 30.718 21.7637 30.7615 21.689 30.837C21.6143 30.9124 21.5727 31.0138 21.5731 31.1192C21.5736 31.2247 21.616 31.3257 21.6913 31.4006C21.7666 31.4755 21.8687 31.5182 21.9757 31.5195H21.9791C26.0841 31.4873 28.7563 28.7848 29.7144 27.6245C30.5767 26.5581 31.6692 25.6945 32.9124 25.0962C34.711 24.2611 36.7134 23.9474 38.686 24.1916C39.074 24.2462 39.4672 24.2545 39.8573 24.2164C40.1653 24.1899 40.468 24.1203 40.7563 24.0099C42.7473 24.6671 43.3341 26.1247 43.4994 27.0775C42.7912 26.6053 41.9609 26.3422 41.1061 26.3192H41.1013C36.5738 25.9302 32.7987 29.3359 32.5072 29.6061C29.1374 32.2799 23.6479 32.9565 23.5932 32.9631C23.5852 32.9641 23.577 32.9654 23.5691 32.9667L20.7262 33.4743C20.5734 33.4971 19.3408 33.7169 17.6923 35.069C17.1578 35.5121 16.6676 36.0045 16.2283 36.5395ZM39.4967 30.3126C38.4036 31.2038 37.2094 31.9672 35.938 32.5873C36.2714 32.0591 36.5467 31.4973 36.7592 30.9115C36.7964 30.8114 36.7917 30.7008 36.7462 30.6042C36.7007 30.5075 36.6181 30.4326 36.5166 30.3959C36.4663 30.3778 36.4129 30.3695 36.3594 30.3717C36.3059 30.3739 36.2534 30.3865 36.2048 30.4087C36.1067 30.4535 36.0307 30.5349 35.9935 30.635C35.1739 32.8409 34.0875 33.3931 34.0603 33.4064C34.0566 33.408 34.0538 33.4105 34.0503 33.4122C33.3021 33.6979 32.5393 33.9446 31.7649 34.1514C32.258 33.5431 32.6306 32.8489 32.8634 32.1049C33.5758 29.9525 34.3459 29.223 34.4597 29.124C35.3432 28.5267 36.2971 28.0373 37.3004 27.6668C37.0526 28.0201 36.8394 28.3958 36.6637 28.7888C36.6402 28.8367 36.6269 28.8888 36.6245 28.9419C36.6221 28.9951 36.6308 29.0482 36.65 29.0979C36.6692 29.1476 36.6985 29.193 36.7361 29.2311C36.7737 29.2693 36.8188 29.2995 36.8686 29.3199C36.9685 29.3497 37.0755 29.3461 37.173 29.3095C37.2706 29.273 37.3531 29.2056 37.4076 29.118C38.092 27.6166 38.8408 27.2692 38.961 27.2215C39.6493 27.0971 40.3514 27.0637 41.0487 27.1222C41.0636 27.1235 41.0797 27.1238 41.0948 27.1237H41.1058C40.8506 27.5295 40.6591 27.9711 40.5378 28.4333C40.3366 29.1281 39.981 29.7701 39.4967 30.3126ZM27.6782 34.8866C27.9306 34.5978 28.1374 34.2731 28.2916 33.9235C28.2935 33.919 28.2956 33.9143 28.2974 33.9097C28.3015 33.8997 28.6943 32.9339 29.2496 32.3258C30.4318 31.8736 31.553 31.2795 32.5878 30.5569C32.3994 30.9812 32.2327 31.4144 32.0883 31.8551C31.3644 34.0427 30.0585 34.523 29.9222 34.5678C29.2109 34.701 28.464 34.8099 27.6782 34.8869V34.8866ZM19.3553 34.8874C20.2481 34.366 20.8291 34.2723 20.8476 34.2696C20.8504 34.2696 20.8529 34.2681 20.8557 34.2677C20.8585 34.2674 20.8624 34.2677 20.8659 34.2668L23.4671 33.8022C23.2057 34.2485 22.8483 34.633 22.42 34.9286C21.8218 34.9037 20.6015 34.8632 19.3553 34.8878V34.8874ZM23.586 34.9898C23.9553 34.6001 24.2464 34.1451 24.4443 33.6489C25.6284 33.4453 26.7965 33.1595 27.9398 32.7935C27.7915 33.0569 27.6587 33.3284 27.542 33.6068C27.1155 34.5589 26.4297 34.9077 26.2402 34.9889C25.3942 35.0272 24.5099 35.0307 23.5858 34.9902L23.586 34.9898ZM43.3623 29.3328C43.1435 29.472 42.8874 29.5436 42.627 29.5384H41.6169C41.3919 29.5391 41.1675 29.563 40.9475 29.6097C41.1041 29.3009 41.2302 28.978 41.324 28.6454C41.5531 27.8256 41.8744 27.4181 42.0145 27.2706C42.6271 27.4433 43.1812 27.7758 43.6182 28.2329C43.6903 28.399 43.8937 28.9792 43.362 29.3331L43.3623 29.3328Z" fill="#0D2936"/>
<path d="M13.3839 17.8529C13.4453 17.8752 13.5105 17.8852 13.5758 17.8823C13.641 17.8793 13.7051 17.8636 13.7643 17.8358C13.8234 17.8081 13.8765 17.769 13.9205 17.7207C13.9646 17.6724 13.9986 17.6159 14.0208 17.5544C14.0492 17.476 14.0798 17.3983 14.1127 17.3213C14.1383 17.2612 14.1517 17.1967 14.1524 17.1313C14.153 17.066 14.1407 17.0012 14.1163 16.9406C14.0919 16.8801 14.0558 16.8249 14.01 16.7783C13.9643 16.7316 13.9098 16.6945 13.8497 16.6689C13.7896 16.6433 13.725 16.6299 13.6597 16.6292C13.5944 16.6286 13.5296 16.6409 13.469 16.6653C13.4084 16.6897 13.3532 16.7258 13.3066 16.7716C13.26 16.8173 13.2228 16.8718 13.1972 16.9319C13.1572 17.0259 13.1197 17.1209 13.0853 17.216C13.0631 17.2775 13.0532 17.3427 13.0562 17.4079C13.0592 17.4732 13.075 17.5372 13.1027 17.5963C13.1304 17.6555 13.1695 17.7086 13.2177 17.7526C13.266 17.7966 13.3224 17.8307 13.3839 17.8529Z" fill="#0D2936"/>
<path d="M26.3779 27.6866C26.4821 27.6868 26.5837 27.6539 26.6682 27.5928L27.1441 27.2501C27.2492 27.1723 27.3195 27.0562 27.3396 26.9269C27.3598 26.7976 27.3282 26.6656 27.2517 26.5595C27.1752 26.4533 27.06 26.3816 26.931 26.3597C26.802 26.3379 26.6696 26.3678 26.5624 26.4429L26.0867 26.7856C26.0013 26.8471 25.9375 26.9341 25.9047 27.0341C25.8719 27.1342 25.8716 27.242 25.904 27.3422C25.9364 27.4424 25.9997 27.5297 26.0848 27.5916C26.17 27.6535 26.2726 27.6867 26.3779 27.6866Z" fill="#0D2936"/>
<path d="M17.9086 27.344C18.1834 27.344 18.4061 27.1213 18.4061 26.8465C18.4061 26.5717 18.1834 26.349 17.9086 26.349C17.6339 26.349 17.4111 26.5717 17.4111 26.8465C17.4111 27.1213 17.6339 27.344 17.9086 27.344Z" fill="#0D2936"/>
<path d="M12.5491 31.1581C12.4512 31.1678 12.3583 31.2063 12.2823 31.2687C12.2063 31.3312 12.1505 31.4147 12.122 31.5089C12.0934 31.6031 12.0935 31.7036 12.1221 31.7977C12.1506 31.8918 12.2065 31.9754 12.2826 32.0378C12.3586 32.1002 12.4515 32.1386 12.5494 32.1483C12.6473 32.1579 12.7459 32.1383 12.8327 32.0919C12.9194 32.0455 12.9905 31.9744 13.0369 31.8876C13.0832 31.8009 13.1028 31.7023 13.0932 31.6044C13.0868 31.5393 13.0676 31.4762 13.0368 31.4186C13.006 31.3609 12.9641 31.3099 12.9136 31.2685C12.8631 31.227 12.8049 31.196 12.7423 31.177C12.6798 31.1581 12.6141 31.1516 12.5491 31.1581Z" fill="#0D2936"/>
<path d="M9.9895 25.4078C9.8916 25.4175 9.79876 25.456 9.72274 25.5184C9.64671 25.5809 9.59091 25.6645 9.56238 25.7586C9.53386 25.8528 9.53389 25.9533 9.56248 26.0474C9.59107 26.1416 9.64693 26.2251 9.723 26.2875C9.79907 26.3499 9.89193 26.3883 9.98984 26.398C10.0878 26.4076 10.1863 26.388 10.2731 26.3416C10.3598 26.2952 10.4309 26.2241 10.4773 26.1373C10.5237 26.0506 10.5433 25.952 10.5336 25.8541C10.5272 25.789 10.5081 25.7259 10.4773 25.6683C10.4465 25.6106 10.4046 25.5596 10.3541 25.5182C10.3035 25.4767 10.2453 25.4456 10.1828 25.4267C10.1202 25.4077 10.0545 25.4013 9.9895 25.4078Z" fill="#0D2936"/>
</svg>

<svg width="50" height="50" fill="none" xmlns="http://www.w3.org/2000/svg"><path d="M41.176 23.303a1.133 1.133 0 00-.157-.55c-.277-.476-.887-.78-1.811-.9a18.22 18.22 0 01-1.495-.257 16.746 16.746 0 00-4.27-.375 34.733 34.733 0 00-4.477.458c-2.42.38-7.344 1.155-10.403.558-.415-.773-.487-1.464-.212-2.055.596-1.284 2.614-1.886 3.345-2.065.865 1.302 1.965 2.104 3.271 2.384 2.43.52 4.668-.962 4.762-1.026a.403.403 0 00.16-.45.402.402 0 00-.39-.283 1.293 1.293 0 01-.618-.208 2.629 2.629 0 01-.963-1.005c-.833-1.512-2.035-2.075-2.725-2.282 1.405-3.317-.422-5.486-.504-5.58l-.012-.012c-.44-.468-.192-1.316-.19-1.323a.396.396 0 00-.124-.423.41.41 0 00-.443-.057c-1.94.916-3.096 2.621-3.342 4.933a9.791 9.791 0 00.094 2.631 16.133 16.133 0 00-2.809.06c-.369.036-7.366.775-10.472 6.226-1.367 2.4-1.494 5.28-.342 7.705.94 1.979 2.495 3.502 4.622 4.534a8.219 8.219 0 00-1.511 2.204c-1.317 2.81-4.099 2.398-4.216 2.38a.413.413 0 00-.432.216.397.397 0 00.084.471c1.323 1.234 3.01 1.96 4.65 1.846 3.114-.217 5.662-2.868 6.612-4.009.392-.476.826-.916 1.299-1.314a.433.433 0 00.053.002c1.98-.124 4.517.01 4.537.012l.2.012a6.096 6.096 0 00-1.834 2.024c-.654 1.158-2.332 3.576-4.928 3.594a3.271 3.271 0 001.059-1.345 3.22 3.22 0 00.228-1.687.399.399 0 00-.29-.348.414.414 0 00-.437.137.399.399 0 00-.084.3c.077.6-.065 1.206-.402 1.712a2.75 2.75 0 01-1.508 1.055.409.409 0 00-.228.135.398.398 0 00.202.645c.474.134.965.202 1.458.205 3.011 0 4.907-2.71 5.643-4.012a5.227 5.227 0 011.803-1.9c.286-.173.586-.323.896-.448l.014-.007.381.003c8.268 0 13.266-3.369 15.12-4.912.441-.367 1-.57 1.577-.57h1.01a2.14 2.14 0 001.191-.343c.9-.599.775-1.564.553-2.074.016-.615-.084-3.5-3.195-4.622zM16.228 36.54c-.689.827-3.159 3.538-6.033 3.717-1.11.069-2.18-.248-3.19-.942 1.167-.136 2.904-.716 3.898-2.84.011-.024 1.122-2.48 2.86-2.909a.407.407 0 00.249-.183.397.397 0 00-.14-.55.413.413 0 00-.306-.047 3.596 3.596 0 00-1.222.58c-2.118-.951-3.652-2.396-4.556-4.299-1.042-2.19-.924-4.797.314-6.97 2.91-5.109 9.776-5.814 9.845-5.82l.005-.002h.005c.017-.002 1.738-.202 3.168 0a.413.413 0 00.363-.132.401.401 0 00.09-.37 8.938 8.938 0 01-.187-2.926c.192-1.75.935-3.057 2.211-3.895 0 .456.166.897.47 1.242.116.14 1.695 2.123.175 5.16a.398.398 0 00.144.516.411.411 0 00.185.063c.016.001 1.625.165 2.626 1.981.293.542.73.995 1.263 1.312l.013.008c-.786.354-2.054.76-3.343.482-1.157-.25-2.132-1.01-2.898-2.26a.406.406 0 00-.425-.188c-.134.025-3.296.631-4.202 2.579-.301.649-.32 1.358-.056 2.116a3.058 3.058 0 01-1.107-.664 2.123 2.123 0 01-.529-.823.398.398 0 00-.203-.235.414.414 0 00-.451.053.402.402 0 00-.12.432c.147.43.395.818.722 1.136 2.324 2.328 9.418 1.212 13.23.612.323-.051.614-.097.866-.135 1.166-.165 2.34-.27 3.516-.314a15.919 15.919 0 014.059.357c.48.104 1.005.195 1.563.268.851.112 1.083.317 1.26.65-.192.06-.39.1-.59.118a4.118 4.118 0 01-.975-.022 11.475 11.475 0 00-6.235.976 10.1 10.1 0 00-3.478 2.746c-.885 1.072-3.35 3.57-7.11 3.599a.41.41 0 00-.283.121.399.399 0 00.002.564.41.41 0 00.285.119h.003c4.105-.033 6.777-2.735 7.735-3.895a9.294 9.294 0 013.198-2.529 10.618 10.618 0 015.774-.904c.388.054.781.063 1.171.024.308-.026.611-.096.9-.206 1.99.657 2.577 2.115 2.742 3.067a4.535 4.535 0 00-2.393-.758h-.005c-4.527-.389-8.302 3.017-8.594 3.287-3.37 2.674-8.86 3.35-8.914 3.357a.635.635 0 00-.024.004l-2.843.507c-.153.023-1.385.243-3.034 1.595-.534.443-1.024.935-1.464 1.47zm23.269-6.226a18.388 18.388 0 01-3.559 2.274c.333-.528.609-1.09.821-1.676a.396.396 0 00-.013-.307.406.406 0 00-.387-.232.413.413 0 00-.366.263c-.82 2.206-1.906 2.758-1.933 2.771-.003.002-.006.005-.01.006-.748.286-1.51.533-2.285.74a6.182 6.182 0 001.098-2.047c.713-2.152 1.483-2.882 1.597-2.981a13.296 13.296 0 012.84-1.457 6.756 6.756 0 00-.636 1.122.387.387 0 00.205.53.478.478 0 00.539-.201c.684-1.501 1.433-1.849 1.553-1.896a7.986 7.986 0 012.134-.098h.01a4.702 4.702 0 00-.567 1.31 4.847 4.847 0 01-1.041 1.879zm-11.819 4.574c.253-.29.46-.614.614-.964l.005-.013c.005-.01.397-.976.953-1.584a15.507 15.507 0 003.338-1.77c-.189.425-.355.858-.5 1.3-.724 2.187-2.03 2.667-2.166 2.712-.711.133-1.458.242-2.244.319zm-8.323 0c.893-.521 1.474-.615 1.493-.617l.008-.002.01-.001 2.601-.465a3.546 3.546 0 01-1.047 1.127 52.536 52.536 0 00-3.065-.041zm4.231.103c.37-.39.66-.845.858-1.341a25.812 25.812 0 003.496-.855 7.818 7.818 0 00-.398.813c-.427.952-1.112 1.3-1.302 1.382a29.79 29.79 0 01-2.654.001zm19.776-5.657c-.218.139-.475.21-.735.205h-1.01a3.28 3.28 0 00-.67.072c.157-.31.283-.632.377-.965.23-.82.55-1.227.69-1.374a3.551 3.551 0 011.604.962c.072.166.276.746-.256 1.1z" fill="#0D2936"/><path d="M13.384 17.853a.497.497 0 00.637-.299 4.17 4.17 0 01.092-.233.498.498 0 00-.916-.39c-.04.095-.077.19-.112.285a.498.498 0 00.299.637zm12.994 9.834a.494.494 0 00.29-.094l.476-.343a.497.497 0 00-.582-.807l-.475.343a.497.497 0 00.29.9zm-8.469-.343a.497.497 0 100-.995.497.497 0 000 .995zm-5.359 3.814a.498.498 0 10.097.991.498.498 0 00-.098-.99zm-2.56-5.75a.498.498 0 10.098.99.498.498 0 00-.098-.99z" fill="#0D2936"/></svg>
